X: 10
T:Lady John Scott
B:William Marshall Volume 2nd Of A Collection Of Scottish Melodies (1845)
C:William Marshall
L:1/8
M:4/4
O:Scotland
Q:1/4
R:Strathspey
Z:Clark Bernst
%%Page:28 - 1
F:http://richardrobinson.tunebook.org.uk/tune/3853
%%TBL:{"version":1,"type":"tune","id":"3853"}
K:A
Q:1/4    %Tempo
A/E3/2A3/2c/ B3/2A/ B/c3/2 | e/c3/2B3/2A/ BA F2 | \
A/E3/2A3/2c/ B3/2A/ B/c3/2 | e/c3/2B3/2c/ A/A/A A2 :|
A/a/g/a/ f/e/d/c/ d/e/f/e/ d/c/B/A/ | B/c/d/c/ d/c/B/A/ B3/2A/ F2 | \
A/a/g/a/ f/e/d/c/ d/e/f/g/ ac | B3/2A/Bc A/A/A A2 ||
A/a/g/a/ f/e/d/c/ d/e/f/e/ d/c/B/A/ | B/c/d/c/ d/c/B/A/ B3/2A/ F2 | \
A/E3/2A3/2c/ B3/2A/ B/c3/2 | e/c3/2B3/2c/ A/A/A A2 |]

